icons/hicolor/16x16/actions/icon-dra-symbolic.svg

<?xml version="1.0" encoding="UTF-8" standalone="no"?>
<svg
   xmlns:dc="http://purl.org/dc/elements/1.1/"
   xmlns:cc="http://creativecommons.org/ns#"
   xmlns:rdf="http://www.w3.org/1999/02/22-rdf-syntax-ns#"
   xmlns:svg="http://www.w3.org/2000/svg"
   xmlns="http://www.w3.org/2000/svg"
   xmlns:sodipodi="http://sodipodi.sourceforge.net/DTD/sodipodi-0.dtd"
   xmlns:inkscape="http://www.inkscape.org/namespaces/inkscape"
   inkscape:version="1.0 (4035a4fb49, 2020-05-01)"
   sodipodi:docname="dra-symbolic.svg"
   width="64"
   height="64"
   version="1.1"
   id="svg24">
  <sodipodi:namedview
     inkscape:document-rotation="0"
     inkscape:current-layer="svg24"
     inkscape:window-maximized="1"
     inkscape:window-y="40"
     inkscape:window-x="0"
     inkscape:cy="32"
     inkscape:cx="27.254237"
     inkscape:zoom="3.6875"
     showgrid="false"
     id="namedview947"
     inkscape:window-height="898"
     inkscape:window-width="1920"
     inkscape:pageshadow="2"
     inkscape:pageopacity="0"
     guidetolerance="10"
     gridtolerance="10"
     objecttolerance="10"
     borderopacity="1"
     bordercolor="#666666"
     pagecolor="#ffffff" />
  <metadata
     id="metadata30">
    <rdf:RDF>
      <cc:Work
         rdf:about="">
        <dc:format>image/svg+xml</dc:format>
        <dc:type
           rdf:resource="http://purl.org/dc/dcmitype/StillImage" />
        <dc:title />
      </cc:Work>
    </rdf:RDF>
  </metadata>
  <defs
     id="defs28" />
  <path
     d="M 32,3.5000003 C 16.211,3.5000003 3.5,16.211001 3.5,32 3.5,47.789 16.211,60.5 32,60.5 47.789,60.5 60.5,47.789 60.5,32 60.5,16.211001 47.789,3.5000003 32,3.5000003 Z M 20.69463,19.175 h 5.104394 C 21.032256,21.474809 17.75,26.334059 17.75,32 c 0,5.292451 2.86425,9.882597 7.125,12.340722 v -1.850829 c -0.405156,-0.427386 -0.697932,-0.990721 -0.754247,-1.561377 -0.08196,-0.830505 0.202375,-1.515342 0.879491,-2.126367 l 0.411913,-0.370167 -0.26162,-1.330371 C 24.820935,35.436784 24.193032,34.379968 23.107666,33.658789 22.126426,33.006751 22.025,32.82461 22.025,31.691065 c 0,-1.71 1.199494,-4.171621 3.517968,-7.216846 1.085993,-1.42614 3.382469,-3.836006 4.277784,-4.492091 0.671132,-0.491823 1.295042,-0.762489 1.934326,-0.801561 1.065473,-0.06513 2.168503,0.512044 3.576417,1.781249 2.478501,2.234401 5.836132,7.098474 6.476511,9.382179 0.23356,0.832912 0.221453,2.279834 -0.02226,2.568896 -0.108889,0.129177 -0.569672,0.490721 -1.024218,0.807128 -1.007105,0.700958 -1.688619,1.941182 -1.973292,3.590332 l -0.192042,1.107715 0.562208,0.603956 c 1.006164,1.084425 0.951248,2.520178 -0.03339,3.470653 v 1.848047 C 43.386046,41.882597 46.25001,37.292023 46.25001,32 c 0,-5.665799 -3.2824,-10.525049 -8.049024,-12.825 h 5.104396 c 3.549674,3.1293 5.794628,7.699276 5.794628,12.825 0,6.924076 -4.082625,12.848156 -9.975,15.541407 V 47.675 h -0.275536 c -0.823651,0.3591 -1.689539,0.634794 -2.574465,0.862794 v 2.922362 A 19.949999,19.949999 0 0 0 51.950004,32 19.949999,19.949999 0 0 0 51.101128,26.300001 h 2.944627 A 22.8,22.8 0 0 1 54.800003,32 22.8,22.8 0 0 1 33.425004,54.727637 V 44.685841 c -0.450301,0.05986 -0.899911,0.119216 -1.394386,0.139165 -0.475951,-0.01144 -0.963989,-0.07055 -1.455615,-0.14751 V 54.747127 A 22.8,22.8 0 0 1 9.2000039,32.000006 22.8,22.8 0 0 1 9.9431209,26.300007 H 12.890531 A 19.949999,19.949999 0 0 0 12.050004,32.000006 19.949999,19.949999 0 0 0 27.725003,51.44068 V 48.5378 c -0.884928,-0.228 -1.750816,-0.503694 -2.574466,-0.862794 H 24.875 V 47.541412 C 18.983196,44.847593 14.9,38.924082 14.9,32.000006 c 0,-5.125724 2.244954,-9.6957 5.79463,-12.825001 z M 27.725,39.125001 A 1.4249999,1.4249999 0 0 0 26.3,40.55 1.4249999,1.4249999 0 0 0 27.725,41.975001 1.4249999,1.4249999 0 0 0 29.15,40.55 1.4249999,1.4249999 0 0 0 27.725,39.125001 Z m 8.549999,0 A 1.4249999,1.4249999 0 0 0 34.85,40.55 1.4249999,1.4249999 0 0 0 36.274999,41.975001 1.4249999,1.4249999 0 0 0 37.7,40.55 1.4249999,1.4249999 0 0 0 36.274999,39.125001 Z"
     id="rect2"
     style="fill:#cccccc;stroke-width:1.425" />
</svg>

<svg xmlns="http://www.w3.org/2000/svg" width="64" height="64"><path d="M32 3.5A28.44 28.44 0 0 0 3.5 32 28.44 28.44 0 0 0 32 60.5 28.44 28.44 0 0 0 60.5 32 28.44 28.44 0 0 0 32 3.5M20.695 19.175h5.104c-4.767 2.3-8.049 7.16-8.049 12.825 0 5.292 2.864 9.883 7.125 12.34v-1.85c-.405-.427-.698-.99-.754-1.561-.082-.831.202-1.516.88-2.127l.411-.37-.261-1.33c-.33-1.665-.958-2.722-2.043-3.443-.982-.652-1.083-.834-1.083-1.968 0-1.71 1.2-4.172 3.518-7.217 1.086-1.426 3.382-3.836 4.278-4.492.67-.492 1.295-.762 1.934-.801 1.066-.066 2.169.512 3.576 1.78 2.479 2.235 5.837 7.1 6.477 9.383.234.833.221 2.28-.022 2.569-.11.13-.57.49-1.024.807-1.008.701-1.69 1.941-1.974 3.59l-.192 1.108.562.604c1.007 1.084.952 2.52-.033 3.47v1.849A14.21 14.21 0 0 0 46.25 32c0-5.666-3.282-10.525-8.049-12.825h5.104c3.55 3.13 5.795 7.7 5.795 12.825 0 6.924-4.083 12.848-9.975 15.541v.134h-.276c-.823.36-1.69.635-2.574.863v2.922A19.95 19.95 0 0 0 51.95 32a20 20 0 0 0-.849-5.7h2.945A22.8 22.8 0 0 1 54.8 32a22.8 22.8 0 0 1-21.375 22.728V44.686c-.45.06-.9.12-1.394.139-.476-.011-.964-.07-1.456-.148v10.07A22.8 22.8 0 0 1 9.2 32a22.8 22.8 0 0 1 .743-5.7h2.948a20 20 0 0 0-.841 5.7 19.95 19.95 0 0 0 15.675 19.44v-2.902a17 17 0 0 1-2.574-.863h-.276v-.134C18.983 44.848 14.9 38.924 14.9 32c0-5.126 2.245-9.696 5.795-12.825m7.03 19.95A1.425 1.425 0 0 0 26.3 40.55a1.425 1.425 0 0 0 1.425 1.425 1.425 1.425 0 0 0 1.425-1.425 1.425 1.425 0 0 0-1.425-1.425m8.55 0a1.425 1.425 0 0 0-1.425 1.425 1.425 1.425 0 0 0 1.425 1.425A1.425 1.425 0 0 0 37.7 40.55a1.425 1.425 0 0 0-1.425-1.425" style="fill:#ccc;stroke-width:1.425"/></svg>
